X: 7821
T: Comely Jane Downing
R: reel
M: 4/4
K: Gmajor
G2 BG BddB|c2 ec eg g2|G2 BG Bddg|edcB AcBA|
G2 BG BddB|cBcd efga|bgaf gfeg|fdcA AG G2||
g2 bg agfd|edef gdBd|g2 bg agfd|edef g2 ga|
bagf gfed|edef gdBd|cBcd efge|dBGB AG G2||

